X: 12236
T: Fair Wind, The
R: reel
M: 4/4
K: Amajor
|:EAAE A3B|cBAB cB B2|EAAE A3B|cBAF FE E2:|
|:ceec A3B|ceec d3B|ceec A3B|1 cAAF FEEd:|2 cBAF FE E2||
|:AF F2 d3B|cBAB cB B2|AF F2 d3B|cBAF FE E2:|

